packages/elvis-assets-icons/icons/svg/src/step_2.svg

<svg width="24" height="24" viewBox="0 0 24 24" fill="none" xmlns="http://www.w3.org/2000/svg">
<path d="M8.75536 16.5V15.528L12.4004 12.1395C12.9404 11.6265 13.3139 11.199 13.5209 10.857C13.7369 10.515 13.8449 10.155 13.8449 9.77698C13.8449 9.29098 13.6559 8.89048 13.2779 8.57548C12.9089 8.25148 12.4409 8.08948 11.8739 8.08948C11.4149 8.08948 10.9874 8.17948 10.5914 8.35948C10.1954 8.53948 9.76336 8.83648 9.29536 9.25048L8.52586 8.33248C9.04786 7.86448 9.59236 7.51348 10.1594 7.27948C10.7264 7.04548 11.3069 6.92848 11.9009 6.92848C12.3779 6.92848 12.8144 6.99598 13.2104 7.13098C13.6154 7.26598 13.9574 7.45948 14.2364 7.71148C14.5244 7.95448 14.7494 8.24698 14.9114 8.58898C15.0734 8.92198 15.1544 9.29098 15.1544 9.69598C15.1544 10.236 15.0194 10.7355 14.7494 11.1945C14.4884 11.6535 13.9934 12.2205 13.2644 12.8955L10.6049 15.3525H15.3029V16.5H8.75536Z" fill="black"/>
<mask id="path-4-inside-1" fill="white">
<path fill-rule="evenodd" clip-rule="evenodd" d="M12 24C18.6274 24 24 18.6274 24 12C24 5.37258 18.6274 0 12 0C5.37258 0 0 5.37258 0 12C0 18.6274 5.37258 24 12 24ZM22.5882 12C22.5882 17.8477 17.8477 22.5882 12 22.5882C6.15228 22.5882 1.41176 17.8477 1.41176 12C1.41176 6.15228 6.15228 1.41176 12 1.41176C17.8477 1.41176 22.5882 6.15228 22.5882 12Z"/>
</mask>
<path fill-rule="evenodd" clip-rule="evenodd" d="M12 24C18.6274 24 24 18.6274 24 12C24 5.37258 18.6274 0 12 0C5.37258 0 0 5.37258 0 12C0 18.6274 5.37258 24 12 24ZM22.5882 12C22.5882 17.8477 17.8477 22.5882 12 22.5882C6.15228 22.5882 1.41176 17.8477 1.41176 12C1.41176 6.15228 6.15228 1.41176 12 1.41176C17.8477 1.41176 22.5882 6.15228 22.5882 12Z" fill="#29D305"/>
<path d="M21 12C21 16.9706 16.9706 21 12 21V27C20.2843 27 27 20.2843 27 12H21ZM12 3C16.9706 3 21 7.02944 21 12H27C27 3.71573 20.2843 -3 12 -3V3ZM3 12C3 7.02944 7.02944 3 12 3V-3C3.71573 -3 -3 3.71573 -3 12H3ZM12 21C7.02944 21 3 16.9706 3 12H-3C-3 20.2843 3.71573 27 12 27V21ZM12 25.5882C19.5046 25.5882 25.5882 19.5046 25.5882 12H19.5882C19.5882 16.1909 16.1909 19.5882 12 19.5882V25.5882ZM-1.58824 12C-1.58824 19.5046 4.49542 25.5882 12 25.5882V19.5882C7.80913 19.5882 4.41176 16.1909 4.41176 12H-1.58824ZM12 -1.58824C4.49542 -1.58824 -1.58824 4.49542 -1.58824 12H4.41176C4.41176 7.80913 7.80913 4.41176 12 4.41176V-1.58824ZM25.5882 12C25.5882 4.49542 19.5046 -1.58824 12 -1.58824V4.41176C16.1909 4.41176 19.5882 7.80913 19.5882 12H25.5882Z" fill="#29D305" mask="url(#path-4-inside-1)"/>
</svg>

<svg width="24" height="24" fill="none" xmlns="http://www.w3.org/2000/svg"><mask id="a" fill="#fff"><path fill-rule="evenodd" clip-rule="evenodd" d="M12 24c6.627 0 12-5.373 12-12S18.627 0 12 0 0 5.373 0 12s5.373 12 12 12zm10.588-12c0 5.848-4.74 10.588-10.588 10.588-5.848 0-10.588-4.74-10.588-10.588C1.412 6.152 6.152 1.412 12 1.412c5.848 0 10.588 4.74 10.588 10.588z"/></mask><path fill-rule="evenodd" clip-rule="evenodd" d="M12 24c6.627 0 12-5.373 12-12S18.627 0 12 0 0 5.373 0 12s5.373 12 12 12zm10.588-12c0 5.848-4.74 10.588-10.588 10.588-5.848 0-10.588-4.74-10.588-10.588C1.412 6.152 6.152 1.412 12 1.412c5.848 0 10.588 4.74 10.588 10.588z" fill="#29D305"/><path d="M21 12a9 9 0 01-9 9v6c8.284 0 15-6.716 15-15h-6zm-9-9a9 9 0 019 9h6c0-8.284-6.716-15-15-15v6zm-9 9a9 9 0 019-9v-6C3.716-3-3 3.716-3 12h6zm9 9a9 9 0 01-9-9h-6c0 8.284 6.716 15 15 15v-6zm0 4.588c7.505 0 13.588-6.083 13.588-13.588h-6A7.588 7.588 0 0112 19.588v6zM-1.588 12c0 7.505 6.083 13.588 13.588 13.588v-6A7.588 7.588 0 014.412 12h-6zM12-1.588C4.495-1.588-1.588 4.495-1.588 12h6A7.588 7.588 0 0112 4.412v-6zM25.588 12c0-7.505-6.083-13.588-13.588-13.588v6A7.588 7.588 0 0119.588 12h6z" fill="#29D305" mask="url(#a)"/><path d="M8.794 16.926V15.82l4.018-4.2c.345-.373.588-.695.728-.966.15-.28.224-.574.224-.882 0-.41-.173-.751-.518-1.022-.336-.28-.76-.42-1.274-.42-.448 0-.868.093-1.26.28-.383.187-.807.495-1.274.924l-.868-1.05c.532-.495 1.083-.863 1.652-1.106A4.445 4.445 0 0112.014 7c.952 0 1.727.252 2.324.756.607.495.91 1.134.91 1.918 0 .467-.103.9-.308 1.302-.205.401-.57.877-1.092 1.428l-3.136 3.234 4.718-.028v1.316H8.794z" fill="#000"/></svg>
